X: 10061
T: THE MERRY MASONS' MARCH (2nd Set)
R: waltz
B: K\"ohler's Violin Repository, v.1, 1885 p.6 #1
F: http://www.archive.org/details/klersviolinrepos01edin
Z: 2011 John Chambers <jc:trillian.mit.edu>
M: 3/4
L: 1/8
K: D
A2 |\
d3 efg | f2 (.e2 .d2) | c3 def | e2 (.c2 .A2) |\
d3 efg | f2 e2 d2 | f2 a2 a2 | a4 :|
|: f2 |\
g2 a2 b2 | a4 ag | f2 (.e2 .d2) | a4 f2 |\
g2 f2 g2 | e2 a2 g2 | f2 (.d2 .d2) | d4 :|

%%sep 2 1 500

